img/android.svg

<?xml version="1.0" encoding="UTF-8"?>
<svg width="16px" height="20px" viewBox="0 0 16 20" version="1.1" xmlns="http://www.w3.org/2000/svg" xmlns:xlink="http://www.w3.org/1999/xlink">
    <!-- Generator: Sketch 55.2 (78181) - https://sketchapp.com -->
    <title>icons8-android_os_filled</title>
    <desc>Created with Sketch.</desc>
    <g id="Homepage" stroke="none" stroke-width="1" fill="none" fill-rule="evenodd">
        <g id="Tablet---All-Nav-Options" transform="translate(-398.000000, -70.000000)" fill="#031268" fill-rule="nonzero">
            <g id="icons8-android_os_filled" transform="translate(398.000000, 70.000000)">
                <path d="M4.5125,0.0168751459 C4.4609376,0.0262480938 4.4078124,0.0356210417 4.3625,0.0668642012 C4.1796876,0.190274781 4.1390624,0.44646869 4.2625,0.629241073 L5.125,1.91645925 C3.7921876,2.62255465 2.7984376,3.79573539 2.475,5.20323963 L13.525,5.20323963 C13.2015624,3.79573539 12.2078124,2.62255465 10.875,1.91645925 L11.7375,0.629241073 C11.8609376,0.44646869 11.8203124,0.190274781 11.6375,0.0668642012 C11.4531252,-0.056546379 11.1984376,-0.00343292777 11.075,0.179339576 L10.125,1.57903312 C9.4656252,1.338461 8.75,1.20411521 8,1.20411521 C7.25,1.20411521 6.5343752,1.338461 5.875,1.57903312 L4.925,0.179339576 C4.8328124,0.0418696736 4.6656252,-0.0128058756 4.5125,0.0168751459 Z M5.8,3.20367742 C6.13125,3.20367742 6.4,3.47236859 6.4,3.80354608 C6.4,4.13628563 6.13125,4.40341475 5.8,4.40341475 C5.4671876,4.40341475 5.2,4.13628563 5.2,3.80354608 C5.2,3.47236859 5.4671876,3.20367742 5.8,3.20367742 Z M10.2,3.20367742 C10.5328124,3.20367742 10.8,3.47236859 10.8,3.80354608 C10.8,4.13628563 10.5328124,4.40341475 10.2,4.40341475 C9.86875,4.40341475 9.6,4.13628563 9.6,3.80354608 C9.6,3.47236859 9.86875,3.20367742 10.2,3.20367742 Z M1.2,6.00306452 C0.5375,6.00306452 0,6.54044686 0,7.20280184 L0,12.801576 C0,13.463931 0.5375,14.0013134 1.2,14.0013134 C1.3406252,14.0013134 1.475,13.9716323 1.6,13.9263298 L1.6,6.0780481 C1.475,6.03274562 1.3406252,6.00306452 1.2,6.00306452 Z M2.4,6.00306452 L2.4,14.8011382 C2.4,15.4619312 2.9390624,16.0008756 3.6,16.0008756 L12.4,16.0008756 C13.0609376,16.0008756 13.6,15.4619312 13.6,14.8011382 L13.6,6.00306452 L2.4,6.00306452 Z M14.8,6.00306452 C14.6593752,6.00306452 14.525,6.03274562 14.4,6.0780481 L14.4,13.9263298 C14.525,13.9700702 14.6593752,14.0013134 14.8,14.0013134 C15.4625,14.0013134 16,13.463931 16,12.801576 L16,7.20280184 C16,6.54044686 15.4625,6.00306452 14.8,6.00306452 Z M4,16.8007005 L4,18.4003502 C4,19.2829694 4.7171876,20 5.6,20 C6.4828124,20 7.2,19.2829694 7.2,18.4003502 L7.2,16.8007005 L4,16.8007005 Z M8.8,16.8007005 L8.8,18.4003502 C8.8,19.2829694 9.5171876,20 10.4,20 C11.2828124,20 12,19.2829694 12,18.4003502 L12,16.8007005 L8.8,16.8007005 Z" id="Shape"></path>
            </g>
        </g>
    </g>
</svg>

<svg width="16" height="20" xmlns="http://www.w3.org/2000/svg"><path d="M4.513.017c-.052.01-.105.019-.15.05a.407.407 0 00-.1.562l.862 1.287c-1.333.707-2.327 1.88-2.65 3.287h11.05c-.323-1.407-1.317-2.58-2.65-3.287L11.738.63a.407.407 0 00-.1-.562.41.41 0 00-.563.112l-.95 1.4A6.189 6.189 0 008 1.204c-.75 0-1.466.134-2.125.375l-.95-1.4a.402.402 0 00-.412-.162zM5.8 3.204a.6.6 0 110 1.2.6.6 0 010-1.2zm4.4 0a.6.6 0 11.002 1.198.6.6 0 01-.002-1.198zm-9 2.8A1.2 1.2 0 000 7.202v5.599a1.2 1.2 0 001.2 1.2c.14 0 .275-.03.4-.076V6.078a1.173 1.173 0 00-.4-.075zm1.2 0V14.8c0 .66.54 1.2 1.2 1.2h8.8c.66 0 1.2-.54 1.2-1.2V6.003H2.4zm12.4 0c-.14 0-.275.029-.4.074v7.848c.125.044.26.075.4.075a1.2 1.2 0 001.2-1.2V7.204a1.2 1.2 0 00-1.2-1.2zM4 16.8v1.6a1.6 1.6 0 003.2 0v-1.6H4zm4.8 0v1.6a1.6 1.6 0 003.2 0v-1.6H8.8z" fill="#031268"/></svg>
